src/lib/packages/icons/src/assets/line/megaphone.svg

<svg width="24" height="24" viewBox="0 0 24 24" fill="none" xmlns="http://www.w3.org/2000/svg">
<path d="M20.8 2.41701C20.214 2.13601 19.5341 2.21203 19.0291 2.61903L17.9969 3.44301C16.5399 4.60901 14.71 5.25099 12.845 5.25099H7.5C4.605 5.25099 2.25098 7.60601 2.25098 10.5C2.25098 13.228 4.34896 15.45 7.01196 15.7L9.27698 20.23C9.74598 21.168 10.6891 21.75 11.7371 21.75H13C13.221 21.75 13.43 21.653 13.572 21.485C13.714 21.317 13.776 21.094 13.74 20.877L12.886 15.751C14.737 15.761 16.55 16.4 17.996 17.557L19.026 18.381C19.332 18.625 19.6989 18.75 20.0699 18.75C20.3169 18.75 20.566 18.695 20.799 18.582C21.385 18.301 21.749 17.722 21.749 17.072V3.92702C21.75 3.27802 21.386 2.69901 20.8 2.41701ZM3.75 10.5C3.75 8.43301 5.43202 6.75099 7.49902 6.75099H12.844C13.659 6.75099 14.467 6.646 15.25 6.446V14.554C14.467 14.354 13.658 14.249 12.844 14.249H7.49902C5.43202 14.249 3.75 12.567 3.75 10.5ZM11.736 20.25C11.259 20.25 10.831 19.985 10.618 19.559L8.71301 15.749H11.364L12.114 20.25H11.736ZM20.25 17.072C20.25 17.145 20.217 17.199 20.15 17.231C20.084 17.262 20.019 17.256 19.963 17.21L18.933 16.386C18.264 15.851 17.528 15.412 16.749 15.072V5.92799C17.527 5.58799 18.263 5.149 18.932 4.61501L19.964 3.78999C20.02 3.74499 20.082 3.737 20.15 3.769C20.195 3.791 20.25 3.83599 20.25 3.92799V17.072Z" fill="currentColor"/>
</svg>

<svg xmlns="http://www.w3.org/2000/svg" width="24" height="24" fill="none"><path fill="currentColor" d="M20.8 2.417a1.659 1.659 0 0 0-1.77.202l-1.033.824a8.276 8.276 0 0 1-5.152 1.808H7.5A5.255 5.255 0 0 0 2.251 10.5c0 2.728 2.098 4.95 4.761 5.2l2.265 4.53a2.735 2.735 0 0 0 2.46 1.52H13a.748.748 0 0 0 .74-.873l-.854-5.126a8.277 8.277 0 0 1 5.11 1.806l1.03.824a1.67 1.67 0 0 0 1.773.201c.586-.281.95-.86.95-1.51V3.927a1.661 1.661 0 0 0-.949-1.51ZM3.75 10.5a3.754 3.754 0 0 1 3.749-3.749h5.345c.815 0 1.623-.105 2.406-.305v8.108a9.729 9.729 0 0 0-2.406-.305H7.499A3.754 3.754 0 0 1 3.75 10.5Zm7.986 9.75c-.477 0-.905-.265-1.118-.691l-1.905-3.81h2.651l.75 4.501h-.378Zm8.514-3.178a.164.164 0 0 1-.1.159.167.167 0 0 1-.187-.021l-1.03-.824a9.718 9.718 0 0 0-2.184-1.314V5.928a9.767 9.767 0 0 0 2.183-1.313l1.032-.825a.165.165 0 0 1 .186-.021c.045.022.1.067.1.159v13.144Z"/></svg>
